streams/icons/rubikscube.svg

<?xml version="1.0" encoding="UTF-8" standalone="no"?>
<!-- Created with Inkscape (http://www.inkscape.org/) -->
<svg
   xmlns:dc="http://purl.org/dc/elements/1.1/"
   xmlns:cc="http://creativecommons.org/ns#"
   xmlns:rdf="http://www.w3.org/1999/02/22-rdf-syntax-ns#"
   xmlns:svg="http://www.w3.org/2000/svg"
   xmlns="http://www.w3.org/2000/svg"
   xmlns:sodipodi="http://sodipodi.sourceforge.net/DTD/sodipodi-0.dtd"
   xmlns:inkscape="http://www.inkscape.org/namespaces/inkscape"
   width="259.35626"
   height="274.01251"
   id="svg7586"
   sodipodi:version="0.32"
   inkscape:version="0.45+devel"
   version="1.0"
   sodipodi:docname="rubik.svg"
   inkscape:output_extension="org.inkscape.output.svg.inkscape">
  <defs
     id="defs7588">
    <inkscape:perspective
       sodipodi:type="inkscape:persp3d"
       id="perspective7594"
       inkscape:vp_x="-50 : 600 : 1"
       inkscape:vp_y="0 : 1000 : 0"
       inkscape:vp_z="700 : 600 : 1"
       inkscape:persp3d-origin="300 : 400 : 1" />
  </defs>
  <sodipodi:namedview
     id="base"
     pagecolor="#ffffff"
     bordercolor="#666666"
     borderopacity="1.0"
     inkscape:pageopacity="0.0"
     inkscape:pageshadow="2"
     inkscape:zoom="1"
     inkscape:cx="350"
     inkscape:cy="160"
     inkscape:document-units="px"
     inkscape:current-layer="layer1"
     showgrid="false"
     inkscape:window-width="1022"
     inkscape:window-height="713"
     inkscape:window-x="0"
     inkscape:window-y="25" />
  <metadata
     id="metadata7591">
    <rdf:RDF>
      <cc:Work
         rdf:about="">
        <dc:format>image/svg+xml</dc:format>
        <dc:type
           rdf:resource="http://purl.org/dc/dcmitype/StillImage" />
        <dc:title></dc:title>
        <dc:date></dc:date>
        <dc:creator>
          <cc:Agent>
            <dc:title></dc:title>
          </cc:Agent>
        </dc:creator>
        <dc:rights>
          <cc:Agent>
            <dc:title></dc:title>
          </cc:Agent>
        </dc:rights>
        <dc:publisher>
          <cc:Agent>
            <dc:title></dc:title>
          </cc:Agent>
        </dc:publisher>
        <dc:identifier></dc:identifier>
        <dc:source></dc:source>
        <dc:relation></dc:relation>
        <dc:language></dc:language>
        <dc:subject>
          <rdf:Bag />
        </dc:subject>
        <dc:coverage></dc:coverage>
        <dc:description></dc:description>
        <dc:contributor>
          <cc:Agent>
            <dc:title></dc:title>
          </cc:Agent>
        </dc:contributor>
        <cc:license
           rdf:resource="" />
      </cc:Work>
    </rdf:RDF>
  </metadata>
  <g
     inkscape:label="Camada 1"
     inkscape:groupmode="layer"
     id="layer1"
     transform="translate(-227.46473,-141.07022)">
    <path
       style="fill:#cc0000;fill-rule:evenodd;stroke:#000000;stroke-width:2.05458498;stroke-linecap:round;stroke-linejoin:round;stroke-miterlimit:4;stroke-dasharray:none;stroke-opacity:1"
       d="M 357.68277,151.15331 L 325.49232,162.27259 L 357.15745,173.97555 L 389.17278,162.15585 L 357.68277,151.15331 z"
       id="path7380" />
    <path
       style="fill:#cc0000;fill-rule:evenodd;stroke:#000000;stroke-width:2.05458498;stroke-linecap:round;stroke-linejoin:round;stroke-miterlimit:4;stroke-dasharray:none;stroke-opacity:1"
       d="M 391.30325,162.88546 L 359.22954,174.73435 L 399.53326,189.61841 L 431.05247,176.77726 L 391.30325,162.88546 z"
       id="path7378" />
    <path
       style="fill:#cc0000;fill-rule:evenodd;stroke:#000000;stroke-width:2.05458498;stroke-linecap:round;stroke-linejoin:round;stroke-miterlimit:4;stroke-dasharray:none;stroke-opacity:1"
       d="M 323.36186,163.0022 L 283.40835,176.83563 L 314.78163,189.61841 L 355.08535,174.73435 L 323.36186,163.0022 z"
       id="path7376" />
    <path
       style="fill:#cc0000;fill-rule:evenodd;stroke:#000000;stroke-width:2.05458498;stroke-linecap:round;stroke-linejoin:round;stroke-miterlimit:4;stroke-dasharray:none;stroke-opacity:1"
       d="M 357.15745,175.49314 L 316.73699,190.40639 L 357.15745,206.86642 L 397.57791,190.40639 L 357.15745,175.49314 z"
       id="path7374" />
    <path
       style="fill:#cc0000;fill-rule:evenodd;stroke:#000000;stroke-width:2.05458498;stroke-linecap:round;stroke-linejoin:round;stroke-miterlimit:4;stroke-dasharray:none;stroke-opacity:1"
       d="M 433.06619,177.47768 L 401.51781,190.34802 L 444.88589,206.37029 L 475.67548,192.36175 L 433.06619,177.47768 z"
       id="path7372" />
    <path
       style="fill:#cc0000;fill-rule:evenodd;stroke:#000000;stroke-width:2.05458498;stroke-linecap:round;stroke-linejoin:round;stroke-miterlimit:4;stroke-dasharray:none;stroke-opacity:1"
       d="M 281.36544,177.53605 L 238.55186,192.33257 L 269.28308,206.39947 L 312.82627,190.34802 L 281.36544,177.53605 z"
       id="path7370" />
    <path
       style="fill:#cc0000;fill-rule:evenodd;stroke:#000000;stroke-width:2.05458498;stroke-linecap:round;stroke-linejoin:round;stroke-miterlimit:4;stroke-dasharray:none;stroke-opacity:1"
       d="M 314.78163,191.136 L 271.15088,207.24582 L 311.19194,225.60284 L 355.28964,207.62522 L 314.78163,191.136 z"
       id="path7368" />
    <path
       style="fill:#cc0000;fill-rule:evenodd;stroke:#000000;stroke-width:2.05458498;stroke-linecap:round;stroke-linejoin:round;stroke-miterlimit:4;stroke-dasharray:none;stroke-opacity:1"
       d="M 399.56245,191.136 L 359.05444,207.62522 L 402.83111,225.4861 L 443.04727,207.18745 L 399.56245,191.136 z"
       id="path7366" />
    <path
       style="fill:#fce94f;fill-rule:evenodd;stroke:#000000;stroke-width:2.05458498;stroke-linecap:round;stroke-linejoin:round;stroke-miterlimit:4;stroke-dasharray:none;stroke-opacity:1"
       d="M 237.06345,193.2081 L 241.44112,243.02595 L 271.03415,258.66881 L 267.82386,207.47929 L 268.17407,207.45011 L 237.06345,193.2081 z"
       id="path7364" />
    <path
       style="fill:#3465a4;fill-rule:evenodd;stroke:#000000;stroke-width:2.05458498;stroke-linecap:round;stroke-linejoin:round;stroke-miterlimit:4;stroke-dasharray:none;stroke-opacity:1"
       d="M 477.22226,193.2081 L 445.90735,207.45011 L 446.49104,207.50848 L 441.70479,259.66108 L 471.12271,244.10577 L 477.22226,193.2081 z"
       id="path7362" />
    <path
       style="fill:#3465a4;fill-rule:evenodd;stroke:#000000;stroke-width:2.05458498;stroke-linecap:round;stroke-linejoin:round;stroke-miterlimit:4;stroke-dasharray:none;stroke-opacity:1"
       d="M 444.94426,207.88788 L 403.85256,226.59511 L 404.37788,226.62429 L 402.48089,280.44041 L 440.21638,260.44906 L 445.03181,207.91706 L 444.94426,207.88788 z"
       id="path7360" />
    <path
       style="fill:#fce94f;fill-rule:evenodd;stroke:#000000;stroke-width:2.05458498;stroke-linecap:round;stroke-linejoin:round;stroke-miterlimit:4;stroke-dasharray:none;stroke-opacity:1"
       d="M 269.28308,207.97543 L 272.52255,259.45679 L 311.6589,280.14857 L 309.93701,226.62429 L 309.99538,226.62429 L 269.28308,207.97543 z"
       id="path7358" />
    <path
       style="fill:#cc0000;fill-rule:evenodd;stroke:#000000;stroke-width:2.05458498;stroke-linecap:round;stroke-linejoin:round;stroke-miterlimit:4;stroke-dasharray:none;stroke-opacity:1"
       d="M 357.18663,208.4132 L 312.9722,226.42 L 356.71968,246.46971 L 401.08004,226.27408 L 357.18663,208.4132 z"
       id="path7356" />
    <path
       style="fill:#3465a4;fill-rule:evenodd;stroke:#000000;stroke-width:2.05458498;stroke-linecap:round;stroke-linejoin:round;stroke-miterlimit:4;stroke-dasharray:none;stroke-opacity:1"
       d="M 402.88947,227.03287 L 357.47848,247.69546 L 357.97461,304.02144 L 401.05085,281.19921 L 402.94784,227.06206 L 402.88947,227.03287 z"
       id="path7354" />
    <path
       style="fill:#fce94f;fill-rule:evenodd;stroke:#000000;stroke-width:2.05458498;stroke-linecap:round;stroke-linejoin:round;stroke-miterlimit:4;stroke-dasharray:none;stroke-opacity:1"
       d="M 311.39624,227.26635 L 313.08893,280.90736 L 356.57376,303.87552 L 356.07762,247.75383 L 311.39624,227.26635 z"
       id="path7352" />
    <path
       style="fill:#fce94f;fill-rule:evenodd;stroke:#000000;stroke-width:2.05458498;stroke-linecap:round;stroke-linejoin:round;stroke-miterlimit:4;stroke-dasharray:none;stroke-opacity:1"
       d="M 241.58704,244.68946 L 245.67286,291.06355 L 274.15688,308.63259 L 271.1217,260.30314 L 241.58704,244.68946 z"
       id="path7350" />
    <path
       style="fill:#3465a4;fill-rule:evenodd;stroke:#000000;stroke-width:2.05458498;stroke-linecap:round;stroke-linejoin:round;stroke-miterlimit:4;stroke-dasharray:none;stroke-opacity:1"
       d="M 470.91842,245.79847 L 441.55887,261.35378 L 437.03528,310.61713 L 465.25664,292.98972 L 470.91842,245.79847 z"
       id="path7348" />
    <path
       style="fill:#fce94f;fill-rule:evenodd;stroke:#000000;stroke-width:2.05458498;stroke-linecap:round;stroke-linejoin:round;stroke-miterlimit:4;stroke-dasharray:none;stroke-opacity:1"
       d="M 272.61011,261.09112 L 275.64529,309.5373 L 313.32241,332.79731 L 311.68808,281.78289 L 272.61011,261.09112 z"
       id="path7346" />
    <path
       style="fill:#3465a4;fill-rule:evenodd;stroke:#000000;stroke-width:2.05458498;stroke-linecap:round;stroke-linejoin:round;stroke-miterlimit:4;stroke-dasharray:none;stroke-opacity:1"
       d="M 440.07046,262.14176 L 402.42252,282.07474 L 400.61309,333.41018 L 435.54687,311.55103 L 440.07046,262.14176 z"
       id="path7344" />
    <path
       style="fill:#fce94f;fill-rule:evenodd;stroke:#000000;stroke-width:2.05458498;stroke-linecap:round;stroke-linejoin:round;stroke-miterlimit:4;stroke-dasharray:none;stroke-opacity:1"
       d="M 313.1473,282.54169 L 314.78163,333.67284 L 357.04071,359.76373 L 356.57376,305.50985 L 313.1473,282.54169 z"
       id="path7342" />
    <path
       style="fill:#3465a4;fill-rule:evenodd;stroke:#000000;stroke-width:2.05458498;stroke-linecap:round;stroke-linejoin:round;stroke-miterlimit:4;stroke-dasharray:none;stroke-opacity:1"
       d="M 400.99249,282.83353 L 357.97461,305.5974 L 358.44156,359.76373 L 399.15387,334.3149 L 400.99249,282.83353 z"
       id="path7340" />
    <path
       style="fill:#fce94f;fill-rule:evenodd;stroke:#000000;stroke-width:2.05458498;stroke-linecap:round;stroke-linejoin:round;stroke-miterlimit:4;stroke-dasharray:none;stroke-opacity:1"
       d="M 245.81878,292.78543 L 249.61276,335.92004 L 276.95859,353.43071 L 274.24444,310.32528 L 245.81878,292.78543 z"
       id="path7338" />
    <path
       style="fill:#3465a4;fill-rule:evenodd;stroke:#000000;stroke-width:2.05458498;stroke-linecap:round;stroke-linejoin:round;stroke-miterlimit:4;stroke-dasharray:none;stroke-opacity:1"
       d="M 465.02316,294.79916 L 436.88935,312.39738 L 433.32885,351.15432 L 460.64549,331.42564 L 465.02316,294.79916 z"
       id="path7336" />
    <path
       style="fill:#fce94f;fill-rule:evenodd;stroke:#000000;stroke-width:2.05458498;stroke-linecap:round;stroke-linejoin:round;stroke-miterlimit:4;stroke-dasharray:none;stroke-opacity:1"
       d="M 275.76203,311.25919 L 278.447,354.3938 L 314.75245,377.6538 L 313.38078,334.46082 L 275.76203,311.25919 z"
       id="path7334" />
    <path
       style="fill:#3465a4;fill-rule:evenodd;stroke:#000000;stroke-width:2.05458498;stroke-linecap:round;stroke-linejoin:round;stroke-miterlimit:4;stroke-dasharray:none;stroke-opacity:1"
       d="M 435.37176,313.33128 L 400.55472,335.13206 L 399.12468,375.84436 L 431.81126,352.23415 L 435.37176,313.33128 z"
       id="path7332" />
    <path
       style="fill:#fce94f;fill-rule:evenodd;stroke:#000000;stroke-width:2.05458498;stroke-linecap:round;stroke-linejoin:round;stroke-miterlimit:4;stroke-dasharray:none;stroke-opacity:1"
       d="M 314.81082,335.36554 L 316.18248,378.5877 L 357.42011,404.99963 L 357.06989,361.39806 L 314.81082,335.36554 z"
       id="path7330" />
    <path
       style="fill:#3465a4;fill-rule:evenodd;stroke:#000000;stroke-width:2.05458498;stroke-linecap:round;stroke-linejoin:round;stroke-miterlimit:4;stroke-dasharray:none;stroke-opacity:1"
       d="M 399.0955,336.03678 L 358.47075,361.45643 L 358.82096,404.91207 L 397.66546,376.895 L 399.0955,336.03678 z"
       id="path7319" />
  </g>
</svg>

<svg viewBox="0 0 259.35626 274.01251" xmlns="http://www.w3.org/2000/svg">
<g transform="translate(-227.4647,-141.0702)">
<path d="m357.6828,151.1533-32.1904,11.1193 31.6651,11.703 32.0153-11.8197-31.49-11.0025z" fill="#c00" fill-rule="evenodd" stroke="#000" stroke-linecap="round" stroke-linejoin="round" stroke-width="2.0546"/>
<path d="m391.3032,162.8855-32.0737,11.8489 40.3037,14.8841 31.5192-12.8411-39.7492-13.8918z" fill="#c00" fill-rule="evenodd" stroke="#000" stroke-linecap="round" stroke-linejoin="round" stroke-width="2.0546"/>
<path d="m323.3619,163.0022-39.9535,13.8334 31.3733,12.7828 40.3037-14.8841-31.7235-11.7322z" fill="#c00" fill-rule="evenodd" stroke="#000" stroke-linecap="round" stroke-linejoin="round" stroke-width="2.0546"/>
<path d="m357.1574,175.4931-40.4205,14.9132 40.4205,16.46 40.4205-16.46-40.4205-14.9132z" fill="#c00" fill-rule="evenodd" stroke="#000" stroke-linecap="round" stroke-linejoin="round" stroke-width="2.0546"/>
<path d="m433.0662,177.4777-31.5484,12.8703 43.3681,16.0223 30.7896-14.0085-42.6093-14.8841z" fill="#c00" fill-rule="evenodd" stroke="#000" stroke-linecap="round" stroke-linejoin="round" stroke-width="2.0546"/>
<path d="m281.3654,177.536-42.8136,14.7965 30.7312,14.0669 43.5432-16.0515-31.4608-12.812z" fill="#c00" fill-rule="evenodd" stroke="#000" stroke-linecap="round" stroke-linejoin="round" stroke-width="2.0546"/>
<path d="m314.7816,191.136-43.6308,16.1098 40.0411,18.357 44.0977-17.9776-40.508-16.4892z" fill="#c00" fill-rule="evenodd" stroke="#000" stroke-linecap="round" stroke-linejoin="round" stroke-width="2.0546"/>
<path d="m399.5625,191.136-40.508,16.4892 43.7767,17.8609 40.2162-18.2986-43.4848-16.0515z" fill="#c00" fill-rule="evenodd" stroke="#000" stroke-linecap="round" stroke-linejoin="round" stroke-width="2.0546"/>
<path d="m237.0634,193.2081 4.3777,49.8178 29.593,15.6429-3.2103-51.1895 .3502-.0292-31.1106-14.242z" fill="#fce94f" fill-rule="evenodd" stroke="#000" stroke-linecap="round" stroke-linejoin="round" stroke-width="2.0546"/>
<path d="m477.2223,193.2081-31.3149,14.242 .5837.0584-4.7862,52.1526 29.4179-15.5553 6.0996-50.8977z" fill="#3465a4" fill-rule="evenodd" stroke="#000" stroke-linecap="round" stroke-linejoin="round" stroke-width="2.0546"/>
<path d="m444.9443,207.8879-41.0917,18.7072 .5253.0292-1.897,53.8161 37.7355-19.9914 4.8154-52.532-.0876-.0292z" fill="#3465a4" fill-rule="evenodd" stroke="#000" stroke-linecap="round" stroke-linejoin="round" stroke-width="2.0546"/>
<path d="m269.2831,207.9754 3.2395,51.4814 39.1363,20.6918-1.7219-53.5243h.0584l-40.7123-18.6489z" fill="#fce94f" fill-rule="evenodd" stroke="#000" stroke-linecap="round" stroke-linejoin="round" stroke-width="2.0546"/>
<path d="m357.1866,208.4132-44.2144,18.0068 43.7475,20.0497 44.3604-20.1956-43.8934-17.8609z" fill="#c00" fill-rule="evenodd" stroke="#000" stroke-linecap="round" stroke-linejoin="round" stroke-width="2.0546"/>
<path d="m402.8895,227.0329-45.411,20.6626 .4961,56.326 43.0762-22.8222 1.897-54.1371-.0584-.0292z" fill="#3465a4" fill-rule="evenodd" stroke="#000" stroke-linecap="round" stroke-linejoin="round" stroke-width="2.0546"/>
<path d="m311.3962,227.2663 1.6927,53.641 43.4848,22.9682-.4961-56.1217-44.6814-20.4875z" fill="#fce94f" fill-rule="evenodd" stroke="#000" stroke-linecap="round" stroke-linejoin="round" stroke-width="2.0546"/>
<path d="m241.587,244.6895 4.0858,46.3741 28.484,17.569-3.0352-48.3295-29.5347-15.6137z" fill="#fce94f" fill-rule="evenodd" stroke="#000" stroke-linecap="round" stroke-linejoin="round" stroke-width="2.0546"/>
<path d="m470.9184,245.7985-29.3596,15.5553-4.5236,49.2634 28.2214-17.6274 5.6618-47.1912z" fill="#3465a4" fill-rule="evenodd" stroke="#000" stroke-linecap="round" stroke-linejoin="round" stroke-width="2.0546"/>
<path d="m272.6101,261.0911 3.0352,48.4462 37.6771,23.26-1.6343-51.0144-39.078-20.6918z" fill="#fce94f" fill-rule="evenodd" stroke="#000" stroke-linecap="round" stroke-linejoin="round" stroke-width="2.0546"/>
<path d="m440.0705,262.1418-37.6479,19.933-1.8094,51.3354 34.9338-21.8591 4.5236-49.4093z" fill="#3465a4" fill-rule="evenodd" stroke="#000" stroke-linecap="round" stroke-linejoin="round" stroke-width="2.0546"/>
<path d="m313.1473,282.5417 1.6343,51.1311 42.2591,26.0909-.4669-54.2539-43.4265-22.9682z" fill="#fce94f" fill-rule="evenodd" stroke="#000" stroke-linecap="round" stroke-linejoin="round" stroke-width="2.0546"/>
<path d="m400.9925,282.8335-43.0179,22.7639 .4669,54.1663 40.7123-25.4488 1.8386-51.4814z" fill="#3465a4" fill-rule="evenodd" stroke="#000" stroke-linecap="round" stroke-linejoin="round" stroke-width="2.0546"/>
<path d="m245.8188,292.7854 3.794,43.1346 27.3458,17.5107-2.7142-43.1054-28.4257-17.5399z" fill="#fce94f" fill-rule="evenodd" stroke="#000" stroke-linecap="round" stroke-linejoin="round" stroke-width="2.0546"/>
<path d="m465.0232,294.7992-28.1338,17.5982-3.5605,38.7569 27.3166-19.7287 4.3777-36.6265z" fill="#3465a4" fill-rule="evenodd" stroke="#000" stroke-linecap="round" stroke-linejoin="round" stroke-width="2.0546"/>
<path d="m275.762,311.2592 2.685,43.1346 36.3055,23.26-1.3717-43.193-37.6188-23.2016z" fill="#fce94f" fill-rule="evenodd" stroke="#000" stroke-linecap="round" stroke-linejoin="round" stroke-width="2.0546"/>
<path d="m435.3718,313.3313-34.817,21.8008-1.43,40.7123 32.6866-23.6102 3.5605-38.9029z" fill="#3465a4" fill-rule="evenodd" stroke="#000" stroke-linecap="round" stroke-linejoin="round" stroke-width="2.0546"/>
<path d="m314.8108,335.3655 1.3717,43.2222 41.2376,26.4119-.3502-43.6016-42.2591-26.0325z" fill="#fce94f" fill-rule="evenodd" stroke="#000" stroke-linecap="round" stroke-linejoin="round" stroke-width="2.0546"/>
<path d="m399.0955,336.0368-40.6248,25.4196 .3502,43.4556 38.8445-28.0171 1.43-40.8582z" fill="#3465a4" fill-rule="evenodd" stroke="#000" stroke-linecap="round" stroke-linejoin="round" stroke-width="2.0546"/>
</g>
</svg>
